X: 1
T: Ways of the World  [D]
O: Luther Strong, Kentucky
R: reel
Z: 2011 John Chambers <jc:trillian.mit.edu>
F: http://www.abbamoses.com/fiddledo/waysoftheworld.pdf
M: C|
L: 1/8
K: D
|: cB |\
ABde f2f2 | edBd A2A2- | ABde f2a2 | e3f e2A2- |
ABde f2f2 | edBd A2AB  | A2F2 EF2E | D6 :|
|: AB |\
A2FF A3B | A2 F4 AB | A2FF EF2E | D2A2- A3B |
A2FF A3B | A2 F4 DE | EFED EF2E | D6 :|

